assets/yaml/plain.svg

<svg viewBox="0 0 128 128" xmlns="http://www.w3.org/2000/svg"><path d="m.5 5.6289 21.754 34.15v21.646h13.959v-21.646l22.775-34.15h-15.02l-13.947 21.988-13.832-21.988h-15.689zm63.994.13086-23.66 55.797h11.189l5.1387-12.408h25.266l4.252 12.408h11.957l-22.699-55.797h-11.443zm5.9922 11.773 7.7441 20.475h-16.387l8.6426-20.475zm16.195 50.139v54.451h40.818v-11.635-.00195h-28.863v-42.814h-11.955zm-64.428.011719v54.687h11.734v-37.723l12.279 25.355h9.2344l12.699-26.246v38.602h11.256v-54.676h-15.369l-13.637 24.732-12.986-24.732h-15.211z"/></svg>

<svg xmlns="http://www.w3.org/2000/svg" viewBox="0 0 128 128"><path d="m.5 5.629 21.754 34.15v21.646h13.959V39.779l22.775-34.15h-15.02L30.021 27.617 16.189 5.629zm63.994.13-23.66 55.798h11.189l5.139-12.408h25.266l4.252 12.408h11.957L75.937 5.76zm5.992 11.774 7.744 20.475H61.843zm16.195 50.139v54.45H127.5v-11.636H98.636V67.672zm-64.428.011v54.687h11.734V84.647l12.28 25.355H55.5L68.2 83.756v38.602h11.256V67.682h-15.37L50.45 92.414 37.464 67.682z"/></svg>
